build/img/icon__kitchen.svg

<svg width="36" height="36" viewBox="0 0 36 36" fill="none" xmlns="http://www.w3.org/2000/svg">
<g opacity="0.4" clip-path="url(#clip0)">
<path d="M35.5742 8.6904C35.2681 8.35627 34.8327 8.16467 34.3796 8.16467H33.8989C32.6382 8.16467 31.6045 9.11164 31.4943 10.3674L30.9742 16.2933C30.9282 16.8184 30.4958 17.2145 29.9685 17.2145H25.4667C24.0242 17.2145 22.8506 18.3881 22.8506 19.8306V20.0906C22.8506 20.9621 23.5595 21.671 24.4311 21.671H25.396L24.4458 24.7743C24.4451 24.7766 24.4444 24.7789 24.4437 24.7812L23.7173 27.1533C23.632 27.4318 23.7887 27.7266 24.0671 27.8119C24.1186 27.8277 24.1706 27.8352 24.2218 27.8352C24.4474 27.8352 24.6563 27.6892 24.7258 27.4621L25.3383 25.4617H32.5714L33.1839 27.4621C33.2534 27.6892 33.4622 27.8352 33.6879 27.8352C33.7391 27.8352 33.7912 27.8277 33.8426 27.8119C34.121 27.7266 34.2777 27.4317 34.1924 27.1533L32.4685 21.5237C32.7712 21.438 33.0635 21.316 33.3377 21.1589C33.5903 21.014 33.6777 20.6918 33.5329 20.4392C33.3881 20.1865 33.0657 20.0991 32.8131 20.244C32.3881 20.4876 31.9033 20.6164 31.4111 20.6164H26.1094C26.1076 20.6164 26.1058 20.6164 26.1042 20.6164H24.4312C24.1413 20.6164 23.9054 20.3806 23.9054 20.0906V19.8307C23.9054 18.9697 24.6059 18.2693 25.4668 18.2693H29.9687C31.0468 18.2693 31.9308 17.4594 32.025 16.3855L32.5451 10.4596C32.6071 9.75254 33.1891 9.21929 33.8989 9.21929H34.3797C34.5401 9.21929 34.6883 9.28447 34.7966 9.4028C34.9051 9.52114 34.9571 9.67435 34.943 9.83424L34.2229 18.0405C34.2052 18.2428 34.1657 18.4431 34.1057 18.6356C34.0191 18.9137 34.1744 19.2093 34.4524 19.2959C34.7309 19.3825 35.0261 19.2272 35.1128 18.9493C35.1952 18.6847 35.2492 18.41 35.2736 18.1326L35.9938 9.92642C36.0331 9.47508 35.8803 9.02452 35.5742 8.6904ZM26.4988 21.6711H31.4105L32.2482 24.407H25.6611L26.4988 21.6711Z" fill="#333333"/>
<path d="M10.5329 17.2155H6.03113C5.50385 17.2155 5.07157 16.8195 5.02545 16.2943L4.50542 10.3684C4.39524 9.11265 3.36151 8.16568 2.10088 8.16568H1.62015C1.16706 8.16568 0.731614 8.35728 0.425544 8.69141C0.119474 9.02553 -0.0333848 9.47609 0.00613076 9.92757L0.72627 18.1338C0.811278 19.1022 1.25284 19.9971 1.96967 20.6539C2.42002 21.0665 2.95475 21.3624 3.53103 21.5255L1.80739 27.1544C1.7221 27.4329 1.87876 27.7277 2.1572 27.813C2.20867 27.8287 2.2607 27.8363 2.31181 27.8363C2.53745 27.8363 2.74634 27.6902 2.81581 27.4632L3.42837 25.4627H10.6614L11.274 27.4632C11.3434 27.6902 11.5523 27.8363 11.778 27.8363C11.8292 27.8363 11.8812 27.8287 11.9326 27.813C12.211 27.7277 12.3677 27.4328 12.2824 27.1544L11.5561 24.7823C11.5554 24.78 11.5547 24.7777 11.554 24.7754L10.6038 21.6721H11.5686C12.4402 21.6721 13.1491 20.9632 13.1491 20.0916V19.8317C13.1491 18.3891 11.9755 17.2155 10.5329 17.2155ZM3.75132 24.4079L4.58902 21.6721H9.50069L10.3384 24.4079H3.75132ZM12.0944 20.0916C12.0944 20.3815 11.8585 20.6174 11.5686 20.6174H9.89606C9.89395 20.6174 9.89191 20.6174 9.8898 20.6174H4.58874C4.47596 20.6174 4.36501 20.6101 4.25574 20.5975C4.25567 20.5975 4.25553 20.5975 4.25539 20.5975C2.93605 20.445 1.89585 19.3976 1.77688 18.0415L1.05674 9.83532C1.04268 9.67536 1.09471 9.52215 1.20313 9.40381C1.31148 9.28547 1.45956 9.22029 1.62008 9.22029H2.10081C2.81061 9.22029 3.39266 9.75347 3.45467 10.4606L3.9747 16.3865V16.3864C4.06892 17.4603 4.95296 18.2701 6.03106 18.2701H10.5329C11.3939 18.2701 12.0943 18.9706 12.0943 19.8316V20.0916H12.0944Z" fill="#333333"/>
<path d="M22.0045 26.0958C21.7869 25.2593 21.0313 24.6751 20.167 24.6751H19.8406V15.075H26.3342C26.7083 15.075 27.0584 14.9087 27.2948 14.6188C27.5312 14.3289 27.6236 13.9524 27.5482 13.586C27.3214 12.4832 26.3397 11.6828 25.2139 11.6828H14.2503C13.959 11.6828 13.7229 11.9189 13.7229 12.2102C13.7229 12.5014 13.959 12.7375 14.2503 12.7375H25.2139C25.8416 12.7375 26.3887 13.1837 26.5151 13.7984C26.5305 13.8732 26.4981 13.927 26.4774 13.9524C26.4566 13.9778 26.4105 14.0204 26.3342 14.0204H9.66641C9.59012 14.0204 9.54399 13.9778 9.52325 13.9524C9.50258 13.927 9.4701 13.8732 9.48549 13.7984C9.61192 13.1837 10.1591 12.7375 10.7867 12.7375H11.777C12.0683 12.7375 12.3043 12.5014 12.3043 12.2102C12.3043 11.9189 12.0683 11.6828 11.777 11.6828H10.7867C9.66085 11.6828 8.67915 12.4832 8.45239 13.586C8.37709 13.9525 8.46948 14.329 8.70587 14.6188C8.94226 14.9087 9.29235 15.075 9.66641 15.075H16.1601V24.6751H15.8337C14.9694 24.6751 14.2138 25.2594 13.9962 26.0958L13.8724 26.5716C13.7931 26.8764 13.8581 27.194 14.0507 27.4432C14.2433 27.6923 14.5344 27.8353 14.8493 27.8353H21.1514C21.4663 27.8353 21.7573 27.6924 21.95 27.4432C22.1426 27.1941 22.2075 26.8764 22.1283 26.5716L22.0045 26.0958ZM17.2148 15.075H18.786V24.6751H17.2148V15.075ZM14.9078 26.7805L15.0169 26.3613C15.1136 25.9895 15.4495 25.7298 15.8336 25.7298H20.1669C20.5511 25.7298 20.887 25.9895 20.9837 26.3613L21.0928 26.7805H14.9078Z" fill="#333333"/>
</g>
<defs>
<clipPath id="clip0">
<rect width="36" height="36" fill="white"/>
</clipPath>
</defs>
</svg>

<svg width="36" height="36" fill="none" xmlns="http://www.w3.org/2000/svg"><g opacity=".4" clip-path="url(#clip0)" fill="#333"><path d="M35.574 8.69a1.624 1.624 0 00-1.194-.525h-.481a2.4 2.4 0 00-2.405 2.202l-.52 5.926a1.004 1.004 0 01-1.006.922h-4.501a2.62 2.62 0 00-2.616 2.616v.26c0 .871.709 1.58 1.58 1.58h.965l-.95 3.103-.002.007-.727 2.372a.527.527 0 001.009.31l.612-2.001h7.233l.613 2a.527.527 0 101.008-.309l-1.724-5.63c.303-.085.595-.207.87-.364a.527.527 0 00-.525-.915 2.82 2.82 0 01-1.402.372h-6.98a.526.526 0 01-.526-.525v-.26c0-.861.7-1.562 1.562-1.562h4.502c1.078 0 1.962-.81 2.056-1.883l.52-5.926A1.352 1.352 0 0133.9 9.22h.48a.56.56 0 01.418.183.56.56 0 01.146.431l-.72 8.207a2.834 2.834 0 01-.117.595.527.527 0 001.007.313 3.9 3.9 0 00.16-.816l.72-8.207a1.625 1.625 0 00-.419-1.236zM26.5 21.671h4.912l.837 2.736h-6.587l.838-2.736zm-15.967-4.456H6.03c-.527 0-.96-.395-1.006-.92l-.52-5.927A2.4 2.4 0 002.1 8.166h-.48A1.624 1.624 0 00.005 9.928l.72 8.206a3.869 3.869 0 001.244 2.52c.45.413.985.708 1.561.872l-1.724 5.628a.527.527 0 001.009.31l.612-2.001h7.233l.613 2a.527.527 0 101.008-.309l-.726-2.372-.002-.007-.95-3.103h.965c.871 0 1.58-.709 1.58-1.58v-.26a2.62 2.62 0 00-2.616-2.617zM3.75 24.408l.838-2.736H9.5l.837 2.736H3.751zm8.343-4.316c0 .29-.236.525-.525.525h-6.98a2.805 2.805 0 01-2.812-2.576l-.72-8.206a.56.56 0 01.146-.431.56.56 0 01.417-.184h.48c.71 0 1.293.533 1.355 1.24l.52 5.927A2.053 2.053 0 006.03 18.27h4.502c.86 0 1.561.7 1.561 1.562v.26z"/><path d="M22.005 26.096a1.899 1.899 0 00-1.838-1.42h-.326v-9.601h6.493c.374 0 .724-.166.96-.456.237-.29.33-.667.254-1.033a2.392 2.392 0 00-2.334-1.903H14.25a.527.527 0 100 1.055h10.964c.628 0 1.175.446 1.301 1.06a.182.182 0 01-.038.154.182.182 0 01-.143.068H9.666a.182.182 0 01-.143-.068.182.182 0 01-.038-.154 1.333 1.333 0 011.302-1.06h.99a.527.527 0 100-1.055h-.99c-1.126 0-2.108.8-2.335 1.903-.075.367.017.743.254 1.033.236.29.586.456.96.456h6.494v9.6h-.326a1.9 1.9 0 00-1.838 1.42l-.124.477c-.079.304-.014.622.179.871.192.25.483.392.798.392h6.302c.315 0 .606-.143.799-.392a.998.998 0 00.178-.871l-.123-.476zm-4.79-11.021h1.571v9.6h-1.571v-9.6zm-2.307 11.706l.109-.42a.844.844 0 01.817-.631h4.333c.384 0 .72.26.817.631l.109.42h-6.185z"/></g><defs><clipPath id="clip0"><path fill="#fff" d="M0 0h36v36H0z"/></clipPath></defs></svg>
